_site/logo-craft-white.svg

<svg height="79" preserveAspectRatio="xMidYMid slice" viewBox="0 0 272 79" width="270" xmlns="http://www.w3.org/2000/svg"><g fill="#fff" fill-rule="evenodd"><path d="m140.254 16.15h-.041l-8.899 6.98-.668 3.517h-9.218l2.694-14.145c.635-5.336 8.761-3.721 9.972-3.418l1.298-6.816c-14.613-5.617-18.879 10.234-18.879 10.234l-2.693 14.145h-.047l-9.152 7.177h7.833l-8.609 45.176h7.61l8.604-45.176h9.218l-3.369 17.684c-2.142 12.875 10.753 11.465 14.869 10.638l1.287-6.743c-9.845 2.223-8.547-3.895-8.547-3.895l3.37-17.684h11.734l1.367-7.177h-11.734z"/><path d="m79.92 26.819-1.375 7.611c18.595-8.104 15.462 6.015 15.462 6.015l-.38 2.123s-10.902-5.596-18.534.635c0 0-4.47 2.98-4.47 8.941 0 5.962 5.464 9.166 5.464 9.166s8.218 4.336 14.653-2.594l-.71 3.225h7.197l4.523-21.455c3.395-21.17-21.83-13.667-21.83-13.667zm11.956 25.548c-7.918 8.125-12.989 2.804-12.989 2.804-3.433-3.342.361-6.774.361-6.774 5.238-4.787 13.253.473 13.253.473z"/><path d="m73.476 26.669c-5.869.062-11.202 3.336-11.202 3.336l.682-3.212h-7.044l-6.427 35.215h7.198l4.357-23.168c3.221-6.544 11.182-4.51 11.182-4.51z"/><path d="m46.014 11.578c.364.275.709.566 1.048.863l5.462-4.286.17-.222c-.836-.845-1.734-1.644-2.708-2.379-12.534-9.462-31.477-5.501-42.306 8.849-10.828 14.347-9.445 33.646 3.092 43.109 10.236 7.726 24.739 6.5 35.612-2.018l-.011-.022-5.2-4.079c-8.057 5.182-18.053 5.555-25.285.097-9.629-7.269-10.692-22.094-2.375-33.116 8.32-11.022 22.871-14.064 32.501-6.796z"/><path d="m163.898 33.897c1.291-1.345 2.843-2.415 4.654-3.211s3.814-1.195 6.012-1.195c1.92 0 3.666.289 5.229.865 1.565.576 3.032 1.305 4.406 2.183l1.399-2.06c-1.537-.988-3.225-1.797-5.064-2.429-1.84-.63-3.829-.947-5.971-.947-2.525 0-4.859.467-7 1.401-2.142.934-3.994 2.21-5.56 3.83-1.563 1.62-2.771 3.514-3.624 5.681-.851 2.169-1.275 4.488-1.275 6.96 0 2.471.438 4.775 1.318 6.917.878 2.142 2.086 4.009 3.623 5.601 1.536 1.593 3.376 2.84 5.518 3.746 2.141.907 4.475 1.359 7 1.359 2.142 0 4.131-.317 5.971-.947s3.527-1.441 5.064-2.43l-1.399-2.059c-1.374.879-2.841 1.605-4.406 2.182-1.563.576-3.31.865-5.229.865-2.197 0-4.201-.397-6.012-1.193-1.812-.796-3.363-1.895-4.654-3.295-1.289-1.399-2.291-3.047-3.004-4.941-.714-1.894-1.07-3.911-1.07-6.053 0-2.141.356-4.145 1.07-6.011.713-1.866 1.715-3.473 3.004-4.819z"/><path d="m239.336 29.863c-.963-.96-2.06-1.661-3.294-2.101-1.236-.439-2.541-.659-3.913-.659-2.855 0-5.518.77-7.987 2.306-2.471 1.538-4.53 3.35-6.177 5.435-.604-2.635-1.785-4.583-3.541-5.847-1.758-1.262-3.789-1.894-6.094-1.894-1.43 0-2.801.206-4.118.618-1.318.412-2.54.947-3.665 1.605-1.126.659-2.184 1.414-3.17 2.265-.989.852-1.869 1.716-2.637 2.594v-6.424h-2.553v34.177h2.635v-24.952c1.866-2.085 3.885-3.843 6.055-5.271 2.167-1.426 4.514-2.141 7.039-2.141 5.381 0 8.072 3.129 8.072 9.388v22.977h2.635v-24.541c1.757-2.36 3.761-4.255 6.011-5.684 2.251-1.426 4.612-2.141 7.083-2.141 5.38 0 8.071 3.129 8.071 9.388v22.977h2.635v-23.223c0-2.03-.275-3.774-.823-5.229-.549-1.454-1.304-2.663-2.264-3.623z"/><path d="m270.012 48.515c-.879-1.153-1.99-2.099-3.336-2.841-1.346-.74-2.788-1.387-4.324-1.936-1.537-.549-2.979-1.152-4.322-1.812-1.346-.659-2.458-1.468-3.336-2.429-.879-.96-1.318-2.265-1.318-3.913 0-1.59.645-3.032 1.937-4.323 1.289-1.289 3.253-1.935 5.888-1.935 1.592 0 3.061.246 4.406.741 1.346.494 2.758 1.291 4.24 2.389l1.236-2.06c-1.537-1.097-3.115-1.92-4.735-2.471-1.618-.548-3.337-.824-5.147-.824-1.646 0-3.102.248-4.365.742s-2.334 1.153-3.211 1.977c-.879.824-1.552 1.758-2.019 2.801s-.699 2.113-.699 3.21c0 1.922.438 3.458 1.318 4.612.878 1.152 1.99 2.114 3.335 2.882 1.346.77 2.785 1.429 4.323 1.977 1.535.551 2.978 1.168 4.323 1.854 1.346.688 2.457 1.511 3.335 2.471.878.961 1.318 2.266 1.318 3.912 0 1.922-.741 3.541-2.224 4.858-1.482 1.318-3.459 1.978-5.93 1.978-1.977 0-3.816-.357-5.518-1.07s-3.35-1.62-4.94-2.719l-1.235 1.977c1.756 1.209 3.595 2.182 5.516 2.924 1.923.74 3.98 1.112 6.178 1.112 1.646 0 3.115-.263 4.407-.784 1.288-.52 2.4-1.206 3.334-2.059.933-.85 1.646-1.852 2.141-3.005.495-1.152.742-2.36.742-3.624-.001-1.921-.441-3.459-1.318-4.612z"/></g></svg>

<?xml version="1.0" encoding="UTF-8" standalone="no"?>
<svg preserveAspectRatio="xMidYMid slice" width="270px" height="79px" viewBox="0 0 272 79" version="1.1" xmlns="http://www.w3.org/2000/svg" xmlns:xlink="http://www.w3.org/1999/xlink">
    <!-- Generator: Sketch 3.8.3 (29802) - http://www.bohemiancoding.com/sketch -->
    <title>craft-cms-logo-knockout</title>
    <desc>Created with Sketch.</desc>
    <defs></defs>
    <g id="Page-1" stroke="none" stroke-width="1" fill="none" fill-rule="evenodd">
        <g id="craft-cms-logo-knockout" fill="#FFFFFF">
            <path d="M140.254,16.15 L140.213,16.15 L131.314,23.13 L130.646,26.647 L121.428,26.647 L124.122,12.502 C124.757,7.166 132.883,8.781 134.094,9.084 L135.392,2.268 C120.779,-3.349 116.513,12.502 116.513,12.502 L113.82,26.647 L113.773,26.647 L104.621,33.824 L112.454,33.824 L103.845,79 L111.455,79 L120.059,33.824 L129.277,33.824 L125.908,51.508 C123.766,64.383 136.661,62.973 140.777,62.146 L142.064,55.403 C132.219,57.626 133.517,51.508 133.517,51.508 L136.887,33.824 L148.621,33.824 L149.988,26.647 L138.254,26.647 L140.254,16.15 L140.254,16.15 Z" id="Shape"></path>
            <path d="M79.92,26.819 L78.545,34.43 C97.14,26.326 94.007,40.445 94.007,40.445 L93.627,42.568 C93.627,42.568 82.725,36.972 75.093,43.203 C75.093,43.203 70.623,46.183 70.623,52.144 C70.623,58.106 76.087,61.31 76.087,61.31 C76.087,61.31 84.305,65.646 90.74,58.716 L90.03,61.941 L97.227,61.941 L101.75,40.486 C105.145,19.316 79.92,26.819 79.92,26.819 L79.92,26.819 Z M91.876,52.367 C83.958,60.492 78.887,55.171 78.887,55.171 C75.454,51.829 79.248,48.397 79.248,48.397 C84.486,43.61 92.501,48.87 92.501,48.87 L91.876,52.367 L91.876,52.367 Z" id="Shape"></path>
            <path d="M73.476,26.669 C67.607,26.731 62.274,30.005 62.274,30.005 L62.956,26.793 L55.912,26.793 L49.485,62.008 L56.683,62.008 L61.04,38.84 C64.261,32.296 72.222,34.33 72.222,34.33 L73.476,26.669 L73.476,26.669 Z" id="Shape"></path>
            <path d="M46.014,11.578 C46.378,11.853 46.723,12.144 47.062,12.441 L52.524,8.155 L52.694,7.933 C51.858,7.088 50.96,6.289 49.986,5.554 C37.452,-3.908 18.509,0.053 7.68,14.403 C-3.148,28.75 -1.765,48.049 10.772,57.512 C21.008,65.238 35.511,64.012 46.384,55.494 L46.373,55.472 L41.173,51.393 C33.116,56.575 23.12,56.948 15.888,51.49 C6.259,44.221 5.196,29.396 13.513,18.374 C21.833,7.352 36.384,4.31 46.014,11.578 L46.014,11.578 Z" id="Shape"></path>
            <path d="M163.898,33.897 C165.189,32.552 166.741,31.482 168.552,30.686 C170.363,29.89 172.366,29.491 174.564,29.491 C176.484,29.491 178.23,29.78 179.793,30.356 C181.358,30.932 182.825,31.661 184.199,32.539 L185.598,30.479 C184.061,29.491 182.373,28.682 180.534,28.05 C178.694,27.42 176.705,27.103 174.563,27.103 C172.038,27.103 169.704,27.57 167.563,28.504 C165.421,29.438 163.569,30.714 162.003,32.334 C160.44,33.954 159.232,35.848 158.379,38.015 C157.528,40.184 157.104,42.503 157.104,44.975 C157.104,47.446 157.542,49.75 158.422,51.892 C159.3,54.034 160.508,55.901 162.045,57.493 C163.581,59.086 165.421,60.333 167.563,61.239 C169.704,62.146 172.038,62.598 174.563,62.598 C176.705,62.598 178.694,62.281 180.534,61.651 C182.374,61.021 184.061,60.21 185.598,59.221 L184.199,57.162 C182.825,58.041 181.358,58.767 179.793,59.344 C178.23,59.92 176.483,60.209 174.564,60.209 C172.367,60.209 170.363,59.812 168.552,59.016 C166.74,58.22 165.189,57.121 163.898,55.721 C162.609,54.322 161.607,52.674 160.894,50.78 C160.18,48.886 159.824,46.869 159.824,44.727 C159.824,42.586 160.18,40.582 160.894,38.716 C161.607,36.85 162.609,35.243 163.898,33.897 L163.898,33.897 Z" id="Shape"></path>
            <path d="M239.336,29.863 C238.373,28.903 237.276,28.202 236.042,27.762 C234.806,27.323 233.501,27.103 232.129,27.103 C229.274,27.103 226.611,27.873 224.142,29.409 C221.671,30.947 219.612,32.759 217.965,34.844 C217.361,32.209 216.18,30.261 214.424,28.997 C212.666,27.735 210.635,27.103 208.33,27.103 C206.9,27.103 205.529,27.309 204.212,27.721 C202.894,28.133 201.672,28.668 200.547,29.326 C199.421,29.985 198.363,30.74 197.377,31.591 C196.388,32.443 195.508,33.307 194.74,34.185 L194.74,27.761 L192.187,27.761 L192.187,61.938 L194.822,61.938 L194.822,36.986 C196.688,34.901 198.707,33.143 200.877,31.715 C203.044,30.289 205.391,29.574 207.916,29.574 C213.297,29.574 215.988,32.703 215.988,38.962 L215.988,61.939 L218.623,61.939 L218.623,37.398 C220.38,35.038 222.384,33.143 224.634,31.714 C226.885,30.288 229.246,29.573 231.717,29.573 C237.097,29.573 239.788,32.702 239.788,38.961 L239.788,61.938 L242.423,61.938 L242.423,38.715 C242.423,36.685 242.148,34.941 241.6,33.486 C241.051,32.032 240.296,30.823 239.336,29.863 L239.336,29.863 Z" id="Shape"></path>
            <path d="M270.012,48.515 C269.133,47.362 268.022,46.416 266.676,45.674 C265.33,44.934 263.888,44.287 262.352,43.738 C260.815,43.189 259.373,42.586 258.03,41.926 C256.684,41.267 255.572,40.458 254.694,39.497 C253.815,38.537 253.376,37.232 253.376,35.584 C253.376,33.994 254.021,32.552 255.313,31.261 C256.602,29.972 258.566,29.326 261.201,29.326 C262.793,29.326 264.262,29.572 265.607,30.067 C266.953,30.561 268.365,31.358 269.847,32.456 L271.083,30.396 C269.546,29.299 267.968,28.476 266.348,27.925 C264.73,27.377 263.011,27.101 261.201,27.101 C259.555,27.101 258.099,27.349 256.836,27.843 C255.573,28.337 254.502,28.996 253.625,29.82 C252.746,30.644 252.073,31.578 251.606,32.621 C251.139,33.664 250.907,34.734 250.907,35.831 C250.907,37.753 251.345,39.289 252.225,40.443 C253.103,41.595 254.215,42.557 255.56,43.325 C256.906,44.095 258.345,44.754 259.883,45.302 C261.418,45.853 262.861,46.47 264.206,47.156 C265.552,47.844 266.663,48.667 267.541,49.627 C268.419,50.588 268.859,51.893 268.859,53.539 C268.859,55.461 268.118,57.08 266.635,58.397 C265.153,59.715 263.176,60.375 260.705,60.375 C258.728,60.375 256.889,60.018 255.187,59.305 C253.485,58.592 251.837,57.685 250.247,56.586 L249.012,58.563 C250.768,59.772 252.607,60.745 254.528,61.487 C256.451,62.227 258.508,62.599 260.706,62.599 C262.352,62.599 263.821,62.336 265.113,61.815 C266.401,61.295 267.513,60.609 268.447,59.756 C269.38,58.906 270.093,57.904 270.588,56.751 C271.083,55.599 271.33,54.391 271.33,53.127 C271.329,51.206 270.889,49.668 270.012,48.515 L270.012,48.515 Z" id="Shape"></path>
        </g>
    </g>
</svg>
